X: 041497
T: Dan Sweeney's (two versions)
S: B.Breathnach: "Ceol Rince na hEireann" II/125 & 127 (gan ainm) 
Z: B.Black
L: 1/8
M: 2/4
R: polka
K: A
A/B/A/F/ EF|AB ce|fe cA/c/|BA F2|
A/B/A/F/ EF|AB ce|fe cA/c/|BA A2 :|
ef/e/ ce|fe e2|aa/f/ ec|BA F2|
A/B/A/F/ EF|AB ce|fe cA/c/|BA A2 :|
W:
P: version 2
AF EF|AB ce|fe ce/c/|BA F2|
AF EF|AB ce|fe ce/c/|BA A2 :|
fe ce|fe fa|fe ce/c/|BA F2|
AF EF|AB ce|fe ce/c/|BA A2 :|
